client/src/assets/images/icons/likeIcons.svg

<svg width="32" height="28" viewBox="0 0 32 28" fill="none" xmlns="http://www.w3.org/2000/svg">
<path d="M29.4601 2.83243C27.3537 0.605487 24.7098 -0.297098 21.5975 0.158412C19.663 0.440997 17.9907 1.39841 16.4818 3.07705C16.34 3.23732 16.2024 3.40181 16.0648 3.57052L15.9918 3.65909L15.9101 3.55787C15.7639 3.38073 15.6221 3.2078 15.4716 3.03909C12.9353 0.276508 9.88309 -0.604989 6.40101 0.424127C3.29723 1.33937 1.25097 3.51991 0.322415 6.89406C0.214943 7.27787 0.15047 7.67433 0.0902855 8.06236C0.0601935 8.2395 0.030092 8.42086 0 8.59801V10.4116L0.0300952 10.5803C0.0515895 10.7111 0.0773931 10.8418 0.0945886 10.9726C0.339624 12.6512 1.01023 14.2539 2.14513 15.8693C3.28003 17.4847 4.71155 19.0115 6.7965 20.8167C8.76108 22.5164 10.7815 24.2245 12.7332 25.8737L14.6032 27.4553C15.0374 27.8222 15.5146 28.0078 15.9961 28.0078C16.4775 28.0078 16.9676 27.818 17.4147 27.4426L19.3019 25.8441C21.2235 24.2161 23.2138 22.5375 25.1483 20.863C26.9796 19.2814 28.351 17.8601 29.4644 16.4007C31.2613 14.0346 32.091 11.6685 31.9921 9.16739C31.8932 6.62835 31.0421 4.4942 29.4644 2.82399L29.4601 2.83243ZM29.7782 10.1543C29.6535 11.9722 28.8883 13.6888 27.3665 15.5572C25.8834 17.3792 24.1209 18.9313 22.4401 20.3696C20.9398 21.6518 19.4308 22.9171 17.9219 24.1866L16.0176 25.7893C16.0176 25.7893 16.0004 25.8062 15.9875 25.8104L14.2335 24.3342C12.759 23.0942 11.2931 21.8584 9.83149 20.6184C8.2968 19.3152 6.67614 17.8896 5.25322 16.3079C4.17421 15.1059 3.00491 13.6339 2.51055 11.8077C1.71096 8.8595 2.2784 6.3078 4.19569 4.22426C5.38218 2.93365 7.14899 2.17025 8.93732 2.17025C8.97171 2.17025 9.00613 2.17025 9.04052 2.17025C10.8761 2.19977 12.5828 3.03066 13.8509 4.50263C14.2163 4.92862 14.5344 5.38835 14.801 5.78481C15.1019 6.23188 15.5361 6.48916 15.9961 6.48916H16.0133C16.4732 6.48495 16.8988 6.21923 17.1868 5.76794C17.9262 4.59964 18.7516 3.74345 19.6974 3.14032C22.4444 1.40263 26.0812 2.04372 28.1575 4.63338C29.3956 6.18127 29.9244 7.98644 29.7782 10.1543Z" fill="#642B13"/>
</svg>

<?xml version="1.0" encoding="utf-8"?>
<!-- Generator: Adobe Illustrator 26.3.1, SVG Export Plug-In . SVG Version: 6.00 Build 0)  -->
<svg version="1.1" id="Calque_1" xmlns="http://www.w3.org/2000/svg" xmlns:xlink="http://www.w3.org/1999/xlink" x="0px" y="0px"
	 viewBox="0 0 32 28" style="enable-background:new 0 0 32 28;" xml:space="preserve">
<style type="text/css">
	.st0{fill:#642B13;}
</style>
<path class="st0" d="M29.5,2.8c-2.1-2.2-4.8-3.1-7.9-2.7c-1.9,0.3-3.6,1.2-5.1,2.9c-0.1,0.2-0.3,0.3-0.4,0.5L16,3.7l-0.1-0.1
	c-0.1-0.2-0.3-0.4-0.4-0.5c-2.5-2.8-5.6-3.6-9.1-2.6C3.3,1.3,1.3,3.5,0.3,6.9C0.2,7.3,0.2,7.7,0.1,8.1C0.1,8.2,0,8.4,0,8.6v1.8
	l0,0.2c0,0.1,0,0.3,0.1,0.4c0.2,1.7,0.9,3.3,2.1,4.9s2.6,3.1,4.7,4.9c2,1.7,4,3.4,5.9,5.1l1.9,1.6C15,27.8,15.5,28,16,28
	c0.5,0,1-0.2,1.4-0.6l1.9-1.6c1.9-1.6,3.9-3.3,5.8-5c1.8-1.6,3.2-3,4.3-4.5c1.8-2.4,2.6-4.7,2.5-7.2C31.9,6.6,31,4.5,29.5,2.8
	L29.5,2.8z M29.8,10.2c-0.1,1.8-0.9,3.5-2.4,5.4c-1.5,1.8-3.2,3.4-4.9,4.8c-1.5,1.3-3,2.5-4.5,3.8L16,25.8c0,0,0,0,0,0l-1.8-1.5
	c-1.5-1.2-2.9-2.5-4.4-3.7c-1.5-1.3-3.2-2.7-4.6-4.3c-1.1-1.2-2.2-2.7-2.7-4.5C1.7,8.9,2.3,6.3,4.2,4.2c1.2-1.3,3-2.1,4.7-2.1
	c0,0,0.1,0,0.1,0c1.8,0,3.5,0.9,4.8,2.3c0.4,0.4,0.7,0.9,1,1.3c0.3,0.4,0.7,0.7,1.2,0.7h0c0.5,0,0.9-0.3,1.2-0.7
	c0.7-1.2,1.6-2,2.5-2.6c2.7-1.7,6.4-1.1,8.5,1.5C29.4,6.2,29.9,8,29.8,10.2z"/>
</svg>
